Catalina-dark/actions/22/object-order-back.svg

<svg xmlns="http://www.w3.org/2000/svg" viewBox="0 0 22 22">
  <defs id="defs3051">
    <style type="text/css" id="current-color-scheme">
      .ColorScheme-Text {
        color:#f2f2f2
      }
      </style>
  </defs>
    <path
       style="fill:currentColor;fill-opacity:1;stroke:none"
       class="ColorScheme-Text"
       d="m 11.740233,4.5000025 c -0.205185,0 -0.36914,0.1625851 -0.36914,0.3660591 l 0,0.8812585 c 0,0.2034737 0.163955,0.368 0.36914,0.368 l 8.888671,0 C 20.834089,6.1153201 21,5.9507938 21,5.7473201 L 21,4.8660616 C 21,4.6625876 20.834089,4.5000025 20.628904,4.5000025 l -8.888671,0 z m 0,4.0034271 c -0.205185,0 -0.36914,0.162585 -0.36914,0.3660599 l 0,0.881259 c 0,0.203474 0.163955,0.3679935 0.36914,0.3679935 l 8.888671,0 C 20.834089,10.118742 21,9.9542226 21,9.7507486 l 0,-0.881259 c 0,-0.203475 -0.165911,-0.36606 -0.371096,-0.36606 l -8.888671,0 z m -2.0781251,0.307957 c -0.1593036,5.4e-4 -0.3183258,0.06111 -0.4394517,0.182059 L 5.8535168,12.359659 2.4589846,9.0166906 c -0.2438961,-0.240349 -0.6387035,-0.238 -0.8808588,0.0038 -0.2425926,0.241858 -0.2402222,0.633273 0.0037,0.87351 l 3.835943,3.7767674 c 0.1219551,0.120075 0.2801258,0.178762 0.4394517,0.178192 0.1592518,-5.77e-4 0.3183185,-0.06111 0.4394517,-0.182066 L 10.105271,9.8629116 c 0.242474,-0.241978 0.242059,-0.6333781 -0.0022,-0.87351 C 9.981093,8.8692296 9.8209449,8.8106676 9.6616412,8.8112146 Z m 2.0781251,3.4010724 c -0.205185,0 -0.36914,0.162585 -0.36914,0.366059 l 0,0.883192 c 0,0.203474 0.163955,0.366059 0.36914,0.366059 l 8.888671,0 C 20.834089,13.827769 21,13.665184 21,13.46171 l 0,-0.883192 c 0,-0.203474 -0.165911,-0.366059 -0.371096,-0.366059 l -8.888671,0 z M 1.3710961,15.884688 C 1.165911,15.884688 1,16.049205 1,16.25268 l 0,0.881259 c 0,0.203474 0.165911,0.366059 0.3710961,0.366059 l 19.2578079,0 C 20.834089,17.499998 21,17.337413 21,17.133939 l 0,-0.881259 c 0,-0.203475 -0.165911,-0.367992 -0.371096,-0.367992 l -19.2578079,0 z"
       />
</svg>

<svg viewBox="0 0 22 22" xmlns="http://www.w3.org/2000/svg">
<defs>
<style id="current-color-scheme" type="text/css">.ColorScheme-Text {
        color:#f2f2f2
      }</style>
</defs>
<path class="ColorScheme-Text" d="m11.74 4.5c-0.20518 0-0.36914 0.16259-0.36914 0.36606v0.88126c0 0.20347 0.16396 0.368 0.36914 0.368h8.8887c0.20518 0 0.3711-0.16453 0.3711-0.368v-0.88126c0-0.20347-0.16591-0.36606-0.3711-0.36606h-8.8887zm0 4.0034c-0.20518 0-0.36914 0.16258-0.36914 0.36606v0.88126c0 0.20347 0.16396 0.36799 0.36914 0.36799h8.8887c0.20518 0 0.3711-0.16452 0.3711-0.36799v-0.88126c0-0.20348-0.16591-0.36606-0.3711-0.36606h-8.8887zm-2.0781 0.30796c-0.1593 5.4e-4 -0.31833 0.06111-0.43945 0.18206l-3.3691 3.3662-3.3945-3.343c-0.2439-0.24035-0.6387-0.238-0.88086 0.0038-0.24259 0.24186-0.24022 0.63327 0.0037 0.87351l3.8359 3.7768c0.12196 0.12008 0.28013 0.17876 0.43945 0.17819 0.15925-5.77e-4 0.31832-0.06111 0.43945-0.18207l3.8086-3.804c0.24247-0.24198 0.24206-0.63338-0.0022-0.87351-0.12198-0.12017-0.28213-0.17873-0.44143-0.17819zm2.0781 3.4011c-0.20518 0-0.36914 0.16258-0.36914 0.36606v0.88319c0 0.20347 0.16396 0.36606 0.36914 0.36606h8.8887c0.20518 0 0.3711-0.16258 0.3711-0.36606v-0.88319c0-0.20347-0.16591-0.36606-0.3711-0.36606h-8.8887zm-10.369 3.6722c-0.20519 0-0.3711 0.16452-0.3711 0.36799v0.88126c0 0.20347 0.16591 0.36606 0.3711 0.36606h19.258c0.20518 0 0.3711-0.16258 0.3711-0.36606v-0.88126c0-0.20348-0.16591-0.36799-0.3711-0.36799h-19.258z" fill="currentColor"/>
</svg>
